X:2937
T:Joik
C:anon.
O:Norway
A:Finnmark
Z:Transcribed by Frank Nordberg - http://www.musicaviva.com
F:http://abc.musicaviva.com/tunes/norway/joik01/joik01-1.abc
M:C
L:1/4
K:C
ECEG|G2CA|AGAG|E2C2|
ECEG|G2CD|EDED|C4|]
W:
W:
W:  From Musica Viva - http://www.musicaviva.com
W:  the Internet center for free sheet music downloads.
